X:2248
T:Jacob's ladder 
C:John Lace, St.Judes, Andreas at 55
C:Traditional
O:Isle of Man
Z:Clague collection
N:Probably Moody & Sankey 'Thou blest rock of ages I'm hiding in thee'.
B:Kiaull Vannin #248 
L:1/4
M:4/4  
K:G 
d|d2 cB|B2 AG|GF EF|G3 G|c2B e|d2 cB|A2 B^c|d3 d| 
d2 cB|B2 AG|GF EF|G3 G|c2 Be|d2 BG|B2 B3/2A/|G4|| 

